X:244
T:En allant sur la lande
R:Larid\'e
C:trad
N:original url: www.wolfram.claranet.de
M:4/4
L:1/8
Q:1/4=200
K:Ador
A2B2 c2c B-|Bc BG A2AG |A2B2 c2c B-|Bc BG A3 c-|\
|:-ccBA F3A| A2 B2 c3c-|ccBA F3A|1 GA BG A3 c- :|2 GABG A4 ||
